public/avatar/hat/111.svg

<svg xmlns:xlink="http://www.w3.org/1999/xlink" height="92.9" width="100.7" xmlns="http://www.w3.org/2000/svg"><use height="28.35" transform="translate(14.65 42.2)" width="47.95" xlink:href="#a"/><defs><g id="a"><path d="m-10.45 17.45-5.3 3.35q.8-3.5.8-4.85 0-.85 2.25.25 1.15.55 2.25 1.25m20.85 0q1.15-.6 2.25-1.25 2.25-1.1 2.25-.25 0 1.35.8 4.85l-5.3-3.35" fill-rule="evenodd" transform="translate(24 7.55)"/><path d="M-13.3-.15q10.15-7.4 13.25-7.4 3 0 13.3 7.4 10.7 7.7 10.7 11.1 0 3.75-9.25 6.35Q7.1 19.4.15 19.4q-7.05 0-14.75-2.1-9.4-2.6-9.4-6.35 0-3.45 10.7-11.1" fill="#271b0a" fill-rule="evenodd" transform="translate(24 7.55)"/><path d="M-14.65 16.2Q-7 18.4.15 18.4t14.65-2.2q8.15-2.35 8.15-5.25T12.65.65Q2.7-6.55-.05-6.55q-2.7 0-12.65 7.2Q-23 8.05-23 10.95q0 2.85 8.35 5.25Z" fill="none" stroke="#271b0a" stroke-linecap="round" stroke-linejoin="round" transform="translate(24 7.55)"/><path d="M-14.65 16.2Q-23 13.8-23 10.95q0-2.9 10.3-10.3 9.95-7.2 12.65-7.2 2.75 0 12.7 7.2 10.3 7.4 10.3 10.3 0 2.9-8.15 5.25Q7.3 18.4.15 18.4t-14.8-2.2" fill="#ffb85f" fill-rule="evenodd" transform="translate(24 7.55)"/><path d="m20.6 9.65-.35-2.75 1.4 1.55q1.35 1.7 1.3 2.5-.2 2.1-5.35 4.3-6.75 2.9-17.45 2.9-10.75 0-17.55-2.85-5.2-2.15-5.6-4.35-.15-1.05 1.3-2.7l1.45-1.45-.4 3q.5 1.4 4.55 3.25Q-9.85 15.9-.15 15.9q15.4 0 20.75-6.25" fill="#e89f44" fill-rule="evenodd" transform="translate(24 7.55)"/><path d="M.05 7.45q5.15 0 5.95 1l2.05 3.65q1.3 2.75 1 3.45Q8.4 17.15 0 17.2q-8.35.05-9-1.45-.2-.55 1-3.35l1.95-3.75q.9-1.2 6.1-1.2" fill-rule="evenodd" transform="translate(24 7.55)"/><path d="M13.35 1.05q8.8 6.1 9.6 9.9.45 2.15-5.1 4.2.9-1.35.9-2.5 0-1.65-4-5.85L-.05-6.55q2.8.1 13.4 7.6" fill="#cd8d3c" fill-rule="evenodd" transform="translate(24 7.55)"/><path d="M17.85 15.15q.9-.8.9-1.7l-.25-1.8q1.75-1.25 2.1-2l-.35-2.75 1.45 1.4q1.4 1.7 1.3 3.1-.15 1.65-2.75 2.75l-2.4 1" fill="#a26f2f" fill-rule="evenodd" transform="translate(24 7.55)"/><path d="M-17.5 9.95q-2.85 2.35-3.85 1.6-.55-.45 2.65-3.25L-.85-5.95-17.5 9.95m5.45-2.65q-.5-.45 7.5-7.6.25.15-2 2.65l-3.1 3.2q-2.25 1.85-2.4 1.75m-6.7-.45q-2.75 2.05-3 1.8-.55-.5 9.45-8.1.3.25-2.55 2.95l-3.9 3.35" fill="#ffe2c0" fill-rule="evenodd" transform="translate(24 7.55)"/><path d="M-20.6 11.1q-.6-.35-.7-1.85l.05-1.4 1.65 2.35q.65 1 8.5 4.5-4.65-.6-9.5-3.6" fill="#ffe2c0" fill-rule="evenodd" transform="translate(24 7.55)"/><path d="m18.9 11.8.65.75-3.25 1.3-5 .75 7.6-2.8" fill="#a26f2f" fill-rule="evenodd" transform="translate(24 7.55)"/><path d="m-9 15.6 1.8.7 7.2.65q7.15 0 8.75-1.4" fill="none" stroke="#ffe2c0" stroke-linecap="round" stroke-linejoin="round" transform="translate(24 7.55)"/><path d="m.3 16.4-.65 1.2-.45-1.15.35-9.1.85.1-.1 8.95m-4.2.9-.35-1.05L-3.1 7.1l.85.15-.85 9.1-.8.95m-3.2-.05-.2-1.45 2-8.65.8.25-1.7 8.6-.9 1.25m10.65.2-.65-1.1-.5-9.05.8-.1.85 9.15-.5 1.1m3.55-.35-.85-1.15-1.5-8.75.8-.2 1.75 8.6-.2 1.5" fill="#e89f44" fill-rule="evenodd" transform="translate(24 7.55)"/><path d="M.5 5.2q4 .35 5.4 1.5 2 1.65 1.1 3.4l-1.5-2q-1-.55-5.6-.55-3.65 0-5.25.65l-1.75 2.35.5-2.25q.7-2.4 1.85-2.85L.5 5.2" fill="#ffb85f" fill-rule="evenodd" transform="translate(24 7.55)"/><path d="m14.1 13.65 4.9-3.6q.85-.8 1.2-1.7l.15-.8-.1 2.6q-.5 1.65-6.15 3.5" fill="#ffe2c0" fill-rule="evenodd" transform="translate(24 7.55)"/><path d="M1.25-4.2 6 .8Q3.1-.45 2.5-1.45L1.25-4.2m15 14.75-4.5-3.25L8.5 3.15l7.75 7.4" fill="#cd8d3c" fill-rule="evenodd" transform="translate(24 7.55)"/></g></defs></svg>

<?xml version="1.0" encoding="UTF-8" standalone="no"?>
<svg xmlns:xlink="http://www.w3.org/1999/xlink" height="92.9px" width="100.7px" xmlns="http://www.w3.org/2000/svg">
  <g transform="matrix(1.0, 0.0, 0.0, 1.0, 38.65, 49.75)">
    <use height="28.35" transform="matrix(1.0, 0.0, 0.0, 1.0, -24.0, -7.55)" width="47.95" xlink:href="#shape0"/>
  </g>
  <defs>
    <g id="shape0" transform="matrix(1.0, 0.0, 0.0, 1.0, 24.0, 7.55)">
      <path d="M-10.45 17.45 L-15.75 20.8 Q-14.95 17.3 -14.95 15.95 -14.95 15.1 -12.7 16.2 -11.55 16.75 -10.45 17.45" fill="#000000" fill-rule="evenodd" stroke="none"/>
      <path d="M10.4 17.45 Q11.55 16.85 12.65 16.2 14.9 15.1 14.9 15.95 14.9 17.3 15.7 20.8 L10.4 17.45" fill="#000000" fill-rule="evenodd" stroke="none"/>
      <path d="M-13.3 -0.15 Q-3.15 -7.55 -0.05 -7.55 2.95 -7.55 13.25 -0.15 23.95 7.55 23.95 10.95 23.95 14.7 14.7 17.3 7.1 19.4 0.15 19.4 -6.9 19.4 -14.6 17.3 -24.0 14.7 -24.0 10.95 -24.0 7.5 -13.3 -0.15" fill="#271b0a" fill-rule="evenodd" stroke="none"/>
      <path d="M-14.65 16.2 Q-7.0 18.4 0.15 18.4 7.3 18.4 14.8 16.2 22.95 13.85 22.95 10.95 22.95 8.05 12.65 0.65 2.7 -6.55 -0.05 -6.55 -2.75 -6.55 -12.7 0.65 -23.0 8.05 -23.0 10.95 -23.0 13.8 -14.65 16.2 Z" fill="none" stroke="#271b0a" stroke-linecap="round" stroke-linejoin="round" stroke-width="1.0"/>
      <path d="M-14.65 16.2 Q-23.0 13.8 -23.0 10.95 -23.0 8.05 -12.7 0.65 -2.75 -6.55 -0.05 -6.55 2.7 -6.55 12.65 0.65 22.95 8.05 22.95 10.95 22.95 13.85 14.8 16.2 7.3 18.4 0.15 18.4 -7.0 18.4 -14.65 16.2" fill="#ffb85f" fill-rule="evenodd" stroke="none"/>
      <path d="M20.6 9.65 L20.25 6.9 21.65 8.45 Q23.0 10.15 22.95 10.95 22.75 13.05 17.6 15.25 10.85 18.15 0.15 18.15 -10.6 18.15 -17.4 15.3 -22.6 13.15 -23.0 10.95 -23.15 9.9 -21.7 8.25 L-20.25 6.8 -20.65 9.8 Q-20.15 11.2 -16.1 13.05 -9.85 15.9 -0.15 15.9 15.25 15.9 20.6 9.65" fill="#e89f44" fill-rule="evenodd" stroke="none"/>
      <path d="M0.05 7.45 Q5.2 7.45 6.0 8.45 L8.05 12.1 Q9.35 14.85 9.05 15.55 8.4 17.15 0.0 17.2 -8.35 17.25 -9.0 15.75 -9.2 15.2 -8.0 12.4 L-6.05 8.65 Q-5.15 7.45 0.05 7.45" fill="#000000" fill-rule="evenodd" stroke="none"/>
      <path d="M13.35 1.05 Q22.15 7.15 22.95 10.95 23.4 13.1 17.85 15.15 18.75 13.8 18.75 12.65 18.75 11.0 14.75 6.8 L-0.05 -6.55 Q2.75 -6.45 13.35 1.05" fill="#cd8d3c" fill-rule="evenodd" stroke="none"/>
      <path d="M17.85 15.15 Q18.75 14.35 18.75 13.45 L18.5 11.65 Q20.25 10.4 20.6 9.65 L20.25 6.9 21.7 8.3 Q23.1 10.0 23.0 11.4 22.85 13.05 20.25 14.15 L17.85 15.15" fill="#a26f2f" fill-rule="evenodd" stroke="none"/>
      <path d="M-17.5 9.95 Q-20.35 12.3 -21.35 11.55 -21.9 11.1 -18.7 8.3 L-0.85 -5.95 -17.5 9.95" fill="#ffe2c0" fill-rule="evenodd" stroke="none"/>
      <path d="M-12.05 7.3 Q-12.55 6.85 -4.55 -0.3 -4.3 -0.15 -6.55 2.35 L-9.65 5.55 Q-11.9 7.4 -12.05 7.3" fill="#ffe2c0" fill-rule="evenodd" stroke="none"/>
      <path d="M-18.75 6.85 Q-21.5 8.9 -21.75 8.65 -22.3 8.15 -12.3 0.55 -12.0 0.8 -14.85 3.5 L-18.75 6.85" fill="#ffe2c0" fill-rule="evenodd" stroke="none"/>
      <path d="M-20.6 11.1 Q-21.2 10.75 -21.3 9.25 L-21.25 7.85 -19.6 10.2 Q-18.95 11.2 -11.1 14.7 -15.75 14.1 -20.6 11.1" fill="#ffe2c0" fill-rule="evenodd" stroke="none"/>
      <path d="M18.9 11.8 L19.55 12.55 16.3 13.85 11.3 14.6 18.9 11.8" fill="#a26f2f" fill-rule="evenodd" stroke="none"/>
      <path d="M-9.0 15.6 L-7.2 16.3 0.0 16.95 Q7.15 16.95 8.75 15.55" fill="none" stroke="#ffe2c0" stroke-linecap="round" stroke-linejoin="round" stroke-width="1.0"/>
      <path d="M0.3 16.4 L-0.35 17.6 -0.8 16.45 -0.45 7.35 0.4 7.45 0.3 16.4" fill="#e89f44" fill-rule="evenodd" stroke="none"/>
      <path d="M-3.9 17.3 L-4.25 16.25 -3.1 7.1 -2.25 7.25 -3.1 16.35 -3.9 17.3" fill="#e89f44" fill-rule="evenodd" stroke="none"/>
      <path d="M-7.1 17.25 L-7.3 15.8 -5.3 7.15 -4.5 7.4 -6.2 16.0 -7.1 17.25" fill="#e89f44" fill-rule="evenodd" stroke="none"/>
      <path d="M3.55 17.45 L2.9 16.35 2.4 7.3 3.2 7.2 4.05 16.35 3.55 17.45" fill="#e89f44" fill-rule="evenodd" stroke="none"/>
      <path d="M7.1 17.1 L6.25 15.95 4.75 7.2 5.55 7.0 7.3 15.6 7.1 17.1" fill="#e89f44" fill-rule="evenodd" stroke="none"/>
      <path d="M0.5 5.2 Q4.5 5.55 5.9 6.7 7.9 8.35 7.0 10.1 L5.5 8.1 Q4.5 7.55 -0.1 7.55 -3.75 7.55 -5.35 8.2 L-7.1 10.55 -6.6 8.3 Q-5.9 5.9 -4.75 5.45 L0.5 5.2" fill="#ffb85f" fill-rule="evenodd" stroke="none"/>
      <path d="M14.1 13.65 L19.0 10.05 Q19.85 9.25 20.2 8.35 L20.35 7.55 20.25 10.15 Q19.75 11.8 14.1 13.65" fill="#ffe2c0" fill-rule="evenodd" stroke="none"/>
      <path d="M1.25 -4.2 L6.0 0.8 Q3.1 -0.45 2.5 -1.45 L1.25 -4.2" fill="#cd8d3c" fill-rule="evenodd" stroke="none"/>
      <path d="M16.25 10.55 L11.75 7.3 8.5 3.15 16.25 10.55" fill="#cd8d3c" fill-rule="evenodd" stroke="none"/>
    </g>
  </defs>
</svg>
